X: 1
T: Marcel Martin
C: William B. Welling (1985)
B: Portland Collection v.1 p.129
R: reel
Z: 2019 John Chambers <jc:trillian.mit.edu>
M: C|
L: 1/8
K: E
ef |:\
"E"gfed e2Be | "A"cBAc "E"BGBe |\
"E"gfed "C#m"e2ce | "B7"Bdfg [1,3 a2ba :|[2,4 "E"e2 :|
w: ~
|: ef |\
"E"gfed e4 | "A"[e'2e2][d'2d2] [c'4c4] |\
[1,3  "E"[b3B3][d'd] "C#m"[c'3c3][eE] |"F#m"[gG][fF][gG][bB] "B7"[f2F2] :|\
[2,4  "E"[b4B4] "C#m"[g3G3][eE] |1"B7"[fF][eE][dD][fF] "E"[e2E2] :|
